X:1
T:The Story of the I'm Alone
M:4/4
L:1/8
K:F
 D F2 A2 AA A| =B G2 A4 F| D2 FF F A2 A| G2 G A4 z| D F2 A2 A2 =B-|\
 =BB GG A3 F| D2 FF AA A G-| G G2 A2 AG G| F F2 FD D C2| F2 F c4 z|\
 B2 B G2 B2 A-| A F2 D2 D F2| E2 EE EE EE| ^C C2 A,2 A,C C| D3 D2 D2 E-|\
 E E2 EG G3| F8| E2 E B4 B| A2 AA AA A2| G G2 A2 A D2| A A2 c2 A2 F|\
 GG F2 E2 CC| DD D4 z2| z8|
